build/img/ok.svg

<svg width="16" height="27" viewBox="0 0 16 27" fill="none" xmlns="http://www.w3.org/2000/svg">
<path d="M7.60869 4.89221C8.34278 4.89221 9.04681 5.18519 9.5659 5.70671C10.085 6.22822 10.3766 6.93555 10.3766 7.67308C10.3766 8.41062 10.085 9.11794 9.5659 9.63946C9.04681 10.161 8.34278 10.454 7.60869 10.454C6.87459 10.454 6.17056 10.161 5.65147 9.63946C5.13239 9.11794 4.84077 8.41062 4.84077 7.67308C4.84077 6.93555 5.13239 6.22822 5.65147 5.70671C6.17056 5.18519 6.87459 4.89221 7.60869 4.89221ZM7.60869 14.3777C11.2942 14.3777 14.282 11.3682 14.282 7.67308C14.282 3.97795 11.2866 0.968506 7.60869 0.968506C3.93077 0.968506 0.935352 3.97795 0.935352 7.67308C0.935352 11.3682 3.93077 14.3777 7.60869 14.3777ZM10.3084 19.8556C11.6778 19.5443 12.9853 19.0035 14.1759 18.2556C14.393 18.1176 14.5809 17.9379 14.7289 17.7269C14.8768 17.5158 14.982 17.2776 15.0383 17.0257C15.0947 16.7739 15.1011 16.5133 15.0572 16.259C15.0133 16.0046 14.92 15.7615 14.7825 15.5433C14.6451 15.3252 14.4663 15.1364 14.2562 14.9878C14.0462 14.8391 13.809 14.7334 13.5583 14.6768C13.3077 14.6202 13.0483 14.6138 12.7952 14.6579C12.542 14.702 12.3 14.7958 12.0829 14.9338C10.7343 15.7805 9.17613 16.2294 7.58594 16.2294C5.99575 16.2294 4.43756 15.7805 3.08902 14.9338C2.87192 14.7958 2.62988 14.702 2.37672 14.6579C2.12356 14.6138 1.86422 14.6202 1.61354 14.6768C1.36285 14.7334 1.12571 14.8391 0.915661 14.9878C0.705615 15.1364 0.526775 15.3252 0.389352 15.5433C0.251916 15.7615 0.158588 16.0046 0.114696 16.259C0.0708037 16.5133 0.0772071 16.7739 0.133542 17.0257C0.189877 17.2776 0.295039 17.5158 0.443023 17.7269C0.591007 17.9379 0.778916 18.1176 0.996019 18.2556C2.20177 19.0175 3.49852 19.5508 4.86352 19.8556L1.14769 23.6117C0.780637 23.9805 0.574431 24.4806 0.574431 25.0021C0.574431 25.5236 0.780637 26.0238 1.14769 26.3926C1.51473 26.7613 2.01256 26.9685 2.53164 26.9685C3.05073 26.9685 3.54855 26.7613 3.9156 26.3926L7.58594 22.6974L11.2563 26.3849C11.438 26.5676 11.6537 26.7125 11.8912 26.8114C12.1286 26.9103 12.3832 26.9612 12.6402 26.9612C12.8973 26.9612 13.1518 26.9103 13.3893 26.8114C13.6267 26.7125 13.8425 26.5676 14.0242 26.3849C14.206 26.2024 14.3503 25.9856 14.4487 25.7471C14.5471 25.5085 14.5977 25.2528 14.5977 24.9945C14.5977 24.7363 14.5471 24.4805 14.4487 24.242C14.3503 24.0034 14.206 23.7866 14.0242 23.6041L10.2856 19.848" fill="#3F3740" fill-opacity="0.3"/>
</svg>

<svg width="16" height="27" fill="none" xmlns="http://www.w3.org/2000/svg"><path d="M7.609 4.892a2.76 2.76 0 011.957.815 2.787 2.787 0 010 3.932 2.761 2.761 0 01-3.915 0 2.788 2.788 0 010-3.932 2.761 2.761 0 011.958-.815zm0 9.486c3.685 0 6.673-3.01 6.673-6.705 0-3.695-2.995-6.704-6.673-6.704S.935 3.978.935 7.673s2.996 6.705 6.674 6.705zm2.7 5.478a12.465 12.465 0 003.867-1.6 1.96 1.96 0 00.862-1.23 1.973 1.973 0 00-.782-2.038 1.951 1.951 0 00-2.173-.054 8.456 8.456 0 01-8.994 0 1.953 1.953 0 00-2.974 1.325 1.974 1.974 0 00.881 1.997 12.173 12.173 0 003.868 1.6l-3.716 3.756a1.971 1.971 0 000 2.78 1.953 1.953 0 002.768 0l3.67-3.695 3.67 3.688a1.956 1.956 0 002.133.426 1.957 1.957 0 001.06-1.064 1.974 1.974 0 00-.425-2.143l-3.738-3.756" fill="#3F3740" fill-opacity=".3"/></svg>
